svgs/anytracker.svg

<svg xmlns="http://www.w3.org/2000/svg" width="192" height="192" viewBox="0 0 192 192" style="enable-background:new 0 0 192 192" xml:space="preserve"><path d="m42.3 120.2 22.5-30.7m17-3.7 27.9 19.1m39.9-33.2-21.5 28.9m-86.6 20.8c-2-1.5-4.4-2.3-7.1-2.3-6.6 0-12 5.4-12 12s5.4 12 12 12 12-5.4 12-12c0-4-2-7.5-4.9-9.7zm116.1-72.5c-6.6 0-12 5.4-12 12 0 3.9 1.9 7.4 4.8 9.6 2 1.5 4.5 2.4 7.2 2.4 6.6 0 12-5.4 12-12s-5.3-12-12-12zM72.3 67.3c-6.6 0-12 5.4-12 12 0 4 1.9 7.5 4.9 9.7 2 1.5 4.4 2.3 7.1 2.3 4.1 0 7.7-2.1 9.9-5.2 1.3-1.9 2.1-4.2 2.1-6.8 0-6.6-5.4-12-12-12zm54.7 34.8c-2-1.5-4.5-2.4-7.2-2.4-4.1 0-7.8 2.1-9.9 5.2-1.3 1.9-2.1 4.3-2.1 6.8 0 6.6 5.4 12 12 12s12-5.4 12-12c.1-3.9-1.8-7.4-4.8-9.6z" style="fill:none;stroke:#000;stroke-width:12;stroke-miterlimit:10"/></svg>

<?xml version="1.0" encoding="utf-8"?>
<!-- Generator: Adobe Illustrator 25.4.1, SVG Export Plug-In . SVG Version: 6.00 Build 0)  -->
<svg version="1.1" id="Layer_1" xmlns="http://www.w3.org/2000/svg" xmlns:xlink="http://www.w3.org/1999/xlink" x="0px" y="0px"
	 width="192px" height="192px" viewBox="0 0 192 192" style="enable-background:new 0 0 192 192;" xml:space="preserve">
<style type="text/css">
	.st0{fill:none;stroke:#000000;stroke-width:12;stroke-miterlimit:10;}
</style>
<path class="st0" d="M42.3,120.2l22.5-30.7 M81.8,85.8l27.9,19.1 M149.6,71.7l-21.5,28.9 M41.5,121.4c-2-1.5-4.4-2.3-7.1-2.3
	c-6.6,0-12,5.4-12,12c0,6.6,5.4,12,12,12c6.6,0,12-5.4,12-12C46.4,127.1,44.4,123.6,41.5,121.4z M157.6,48.9c-6.6,0-12,5.4-12,12
	c0,3.9,1.9,7.4,4.8,9.6c2,1.5,4.5,2.4,7.2,2.4c6.6,0,12-5.4,12-12C169.6,54.3,164.3,48.9,157.6,48.9z M72.3,67.3
	c-6.6,0-12,5.4-12,12c0,4,1.9,7.5,4.9,9.7c2,1.5,4.4,2.3,7.1,2.3c4.1,0,7.7-2.1,9.9-5.2c1.3-1.9,2.1-4.2,2.1-6.8
	C84.3,72.7,78.9,67.3,72.3,67.3z M127,102.1c-2-1.5-4.5-2.4-7.2-2.4c-4.1,0-7.8,2.1-9.9,5.2c-1.3,1.9-2.1,4.3-2.1,6.8
	c0,6.6,5.4,12,12,12c6.6,0,12-5.4,12-12C131.9,107.8,130,104.3,127,102.1z"/>
</svg>
